!!!OTL: Punschlied.
!!!OTL-incipit: VIER ELEMENTE INNIG GESELLT
!!!COM: M. Eberwein
!!!ARE: Europa, Mitteleuropa, Deutschland
!!!SCT: F0749
!!!TXL: @@DE
!!!YEM: Copyright 1995, estate of Helmut Schaffrath.
**kern	**text
*ICvox	*
*clefG2	*
*M3/8	*
*k[b-]	*
*F:	*
=1	=1
!LO:TX:a:t=Ruhig.	!
!LO:TX:a:t=P:only the highest voice encoded:problem	!
{8f	1._Vier
8f	E-
8f	-le-
=2	=2
8.aL	-men-
16gJ	.
8f}	-te,
=3	=3
{8.cc/	in-
16dd/	-nig
16cc/L	ge-
16b-J	.
=4	=4
4a	-ſellt,
8r}	.
=5	=5
{8g	bil-
16a/L	-den
16bnJ	.
16cc/L	das
16ddJ	.
=6	=6
8.ee/L	Le-
16ddJ	.
8cc/}	-ben,
=7	=7
{16ee/L	bau-
16ddJ	.
8cc/	-en
8bn/	die
=8	=8
4cc/	Welt,
8r}	.
=9	=9
{8dd/	bil-
16cc/L	-den
16b-J	.
16aL	das
16gJ	.
=10	=10
8.cc/L	Le-
16aJ	.
8f}	-ben,
=11	=11
{16aL	bau-
16gJ	.
8f	-en
8e	die
=12	=12
4f	Welt.
8r}	.
==	==
!!!AGN: Geselligkeits -, Trink - Lied
!!!ONB: ESAC (Essen Associative Code) Database: FINK
!!!AMT: simple triple
!!!AIN: vox
!!!EED: Helmut Schaffrath
!!!EEV: 1.0
!!Text: Fr. Schiller
!!!source: Musikalischer Hausschatz der Deutschen. Eine Sammlung von über 1000 Liedern und Gesängen mit Singstimmen und Klavierbegleitung. Leipzig, Litterarisches Verlags-Haus.
!!!page: 513
!!!GTL: Liedertafel- und Gesellschaftslieder
!!!URL-scan: https://www.digitale-sammlungen.de/en/view/bsb11144622?page=464
!!!ENC: Anna Maria Matuszewska
!!!EEV: 2024/06/08
*-	*-
